packages/tokens/icons/leaf/size16Px.svg

<svg viewBox="0 0 16 16" fill="none" xmlns="http://www.w3.org/2000/svg" width="1em" height="1em"><path d="M13.2789 10.441C14.4918 9.22805 14.7327 7.11195 13.0016 5.38079C10.8646 3.24385 6.10821 2.62766 3.99232 2.45611C3.4208 2.40977 2.95947 2.87109 3.00581 3.44262C3.17737 5.5585 3.79356 10.3149 5.93049 12.4519C7.66166 14.183 9.77776 13.9421 10.9907 12.7292" stroke="currentColor" stroke-linecap="round"/><path d="M5.40686 4.98206L12.9069 12.4821M5.40687 7.92821C5.88389 7.61955 7.43559 7.01066 8.64778 8.22284C7.43559 7.01066 8.04449 5.45895 8.35315 4.98193M7.17457 9.69603C7.65159 9.38738 9.20329 8.77848 10.4155 9.99066C9.20329 8.77848 9.81219 7.22677 10.1208 6.74976" stroke="currentColor" stroke-linecap="round"/></svg>

<svg xmlns="http://www.w3.org/2000/svg" fill="none" viewBox="0 0 16 16" width="1em" height="1em"><path stroke="currentColor" stroke-linecap="round" d="M13.279 10.441c1.213-1.213 1.454-3.33-.277-5.06-2.137-2.137-6.894-2.753-9.01-2.925a.906.906 0 0 0-.986.987c.171 2.116.788 6.872 2.924 9.009 1.732 1.731 3.848 1.49 5.06.277"/><path stroke="currentColor" stroke-linecap="round" d="m5.407 4.982 7.5 7.5m-7.5-4.554c.477-.308 2.029-.917 3.24.295-1.211-1.212-.603-2.764-.294-3.241M7.175 9.696c.477-.309 2.028-.918 3.24.295-1.212-1.213-.603-2.764-.294-3.241"/></svg>
